src/domains/exchange/images/exchange-cards-banner.svg

<svg xmlns="http://www.w3.org/2000/svg" width="711" height="161"><path stroke="#DBDEE5" stroke-width="2" fill="none" d="M56 39h69c5.523 0 10 4.477 10 10v74c0 5.523-4.477 10-10 10H56M374 39h169c5.523 0 10 4.477 10 10v74c0 5.523-4.477 10-10 10H374c-5.523 0-10-4.477-10-10V49c0-5.523 4.477-10 10-10zM652 133h-69c-5.523 0-10-4.477-10-10V49c0-5.523 4.477-10 10-10h69"/><path fill-rule="evenodd" fill="#EEF3F5" d="M343 49h1c5.523 0 10 4.477 10 10v74c0 5.523-4.477 10-10 10H175c-5.523 0-10-4.477-10-10v-1h170c4.485 0 8-4.842 8-10V49z"/><path stroke="#212225" stroke-width="2" fill="none" d="M165 39h169c5.523 0 10 4.477 10 10v74c0 5.523-4.477 10-10 10H165c-5.523 0-10-4.477-10-10V49c0-5.523 4.477-10 10-10z"/><path fill-rule="evenodd" stroke="#212225" stroke-width="2" fill="#C9292C" d="M185 62h30c5.523 0 10 4.477 10 10v30c0 5.523-4.477 10-10 10h-30c-5.523 0-10-4.477-10-10V72c0-5.523 4.477-10 10-10zM240.5 80h60a1.5 1.5 0 010 3h-60a1.5 1.5 0 010-3zM240.5 90h30a1.5 1.5 0 010 3h-30a1.5 1.5 0 010-3z"/><path stroke="#DBDEE5" stroke-width="2" fill="none" d="M401 62h30c5.523 0 10 4.477 10 10v30c0 5.523-4.477 10-10 10h-30c-5.523 0-10-4.477-10-10V72c0-5.523 4.477-10 10-10zM456.5 80h60a1.5 1.5 0 010 3h-60a1.5 1.5 0 010-3zM456.5 90h30a1.5 1.5 0 010 3h-30a1.5 1.5 0 010-3zM60.5 80h40a1.5 1.5 0 010 3h-40a1.5 1.5 0 010-3zM60.5 90h10a1.5 1.5 0 010 3h-10a1.5 1.5 0 010-3zM634 112h-30c-5.523 0-10-4.477-10-10V72c0-5.523 4.477-10 10-10h30"/><path fill-rule="evenodd" fill="#DBDEE5" d="M706 139v4h-2v-4h-4v-2h4v-4h2v4h4v2h-4zm-29 21h-2v-21h-7v-2h7v-9h2v9h13v2h-13v21zm-1-122h-2V19h-38v3h-2v-3h-14v-2h14V0h2v17h38V0h2v17h6v2h-6v19zM556 23h-2v-4h-4v-2h4v-4h2v4h4v2h-4v4zm-450 0h-2v-4h-4v-2h4v-4h2v4h4v2h-4v4zm-30-1h-2v-3H36v19h-2V19h-6v-2h6V0h2v17h38V0h2v17h14v2H76v3zM33 128h2v9h7v2h-7v21h-2v-21H20v-2h13v-9zM6 143H4v-4H0v-2h4v-4h2v4h4v2H6v4z"/></svg>

<svg 
 xmlns="http://www.w3.org/2000/svg"
 xmlns:xlink="http://www.w3.org/1999/xlink"
 width="711px" height="161px">
<path fill-rule="evenodd"  stroke="rgb(219, 222, 229)" stroke-width="2px" stroke-linecap="butt" stroke-linejoin="miter" fill="none"
 d="M56.000,39.000 L125.000,39.000 C130.523,39.000 135.000,43.477 135.000,49.000 L135.000,123.000 C135.000,128.523 130.523,133.000 125.000,133.000 L56.000,133.000 "/>
<path fill-rule="evenodd"  stroke="rgb(219, 222, 229)" stroke-width="2px" stroke-linecap="butt" stroke-linejoin="miter" fill="none"
 d="M374.000,39.000 L543.000,39.000 C548.523,39.000 553.000,43.477 553.000,49.000 L553.000,123.000 C553.000,128.523 548.523,133.000 543.000,133.000 L374.000,133.000 C368.477,133.000 364.000,128.523 364.000,123.000 L364.000,49.000 C364.000,43.477 368.477,39.000 374.000,39.000 Z"/>
<path fill-rule="evenodd"  stroke="rgb(219, 222, 229)" stroke-width="2px" stroke-linecap="butt" stroke-linejoin="miter" fill="none"
 d="M652.000,133.000 L583.000,133.000 C577.477,133.000 573.000,128.523 573.000,123.000 L573.000,49.000 C573.000,43.477 577.477,39.000 583.000,39.000 L652.000,39.000 "/>
<path fill-rule="evenodd"  fill="rgb(238, 243, 245)"
 d="M343.000,49.000 L344.000,49.000 C349.523,49.000 354.000,53.477 354.000,59.000 L354.000,133.000 C354.000,138.523 349.523,143.000 344.000,143.000 L175.000,143.000 C169.477,143.000 165.000,138.523 165.000,133.000 L165.000,132.000 C165.000,132.000 330.515,132.000 335.000,132.000 C339.485,132.000 343.000,127.158 343.000,122.000 C343.000,116.842 343.000,49.000 343.000,49.000 Z"/>
<path fill-rule="evenodd"  stroke="rgb(33, 34, 37)" stroke-width="2px" stroke-linecap="butt" stroke-linejoin="miter" fill="none"
 d="M165.000,39.000 L334.000,39.000 C339.523,39.000 344.000,43.477 344.000,49.000 L344.000,123.000 C344.000,128.523 339.523,133.000 334.000,133.000 L165.000,133.000 C159.477,133.000 155.000,128.523 155.000,123.000 L155.000,49.000 C155.000,43.477 159.477,39.000 165.000,39.000 Z"/>
<path fill-rule="evenodd"  stroke="rgb(33, 34, 37)" stroke-width="2px" stroke-linecap="butt" stroke-linejoin="miter" fill="rgb(201, 41, 44)"
 d="M185.000,62.000 L215.000,62.000 C220.523,62.000 225.000,66.477 225.000,72.000 L225.000,102.000 C225.000,107.523 220.523,112.000 215.000,112.000 L185.000,112.000 C179.477,112.000 175.000,107.523 175.000,102.000 L175.000,72.000 C175.000,66.477 179.477,62.000 185.000,62.000 Z"/>
<path fill-rule="evenodd"  stroke="rgb(33, 34, 37)" stroke-width="2px" stroke-linecap="butt" stroke-linejoin="miter" fill="rgb(201, 41, 44)"
 d="M240.500,80.000 L300.500,80.000 C301.328,80.000 302.000,80.672 302.000,81.500 C302.000,82.328 301.328,83.000 300.500,83.000 L240.500,83.000 C239.672,83.000 239.000,82.328 239.000,81.500 C239.000,80.672 239.672,80.000 240.500,80.000 Z"/>
<path fill-rule="evenodd"  stroke="rgb(33, 34, 37)" stroke-width="2px" stroke-linecap="butt" stroke-linejoin="miter" fill="rgb(201, 41, 44)"
 d="M240.500,90.000 L270.500,90.000 C271.328,90.000 272.000,90.672 272.000,91.500 C272.000,92.328 271.328,93.000 270.500,93.000 L240.500,93.000 C239.672,93.000 239.000,92.328 239.000,91.500 C239.000,90.672 239.672,90.000 240.500,90.000 Z"/>
<path fill-rule="evenodd"  stroke="rgb(219, 222, 229)" stroke-width="2px" stroke-linecap="butt" stroke-linejoin="miter" fill="none"
 d="M401.000,62.000 L431.000,62.000 C436.523,62.000 441.000,66.477 441.000,72.000 L441.000,102.000 C441.000,107.523 436.523,112.000 431.000,112.000 L401.000,112.000 C395.477,112.000 391.000,107.523 391.000,102.000 L391.000,72.000 C391.000,66.477 395.477,62.000 401.000,62.000 Z"/>
<path fill-rule="evenodd"  stroke="rgb(219, 222, 229)" stroke-width="2px" stroke-linecap="butt" stroke-linejoin="miter" fill="none"
 d="M456.500,80.000 L516.500,80.000 C517.328,80.000 518.000,80.672 518.000,81.500 C518.000,82.328 517.328,83.000 516.500,83.000 L456.500,83.000 C455.672,83.000 455.000,82.328 455.000,81.500 C455.000,80.672 455.672,80.000 456.500,80.000 Z"/>
<path fill-rule="evenodd"  stroke="rgb(219, 222, 229)" stroke-width="2px" stroke-linecap="butt" stroke-linejoin="miter" fill="none"
 d="M456.500,90.000 L486.500,90.000 C487.328,90.000 488.000,90.672 488.000,91.500 C488.000,92.328 487.328,93.000 486.500,93.000 L456.500,93.000 C455.672,93.000 455.000,92.328 455.000,91.500 C455.000,90.672 455.672,90.000 456.500,90.000 Z"/>
<path fill-rule="evenodd"  stroke="rgb(219, 222, 229)" stroke-width="2px" stroke-linecap="butt" stroke-linejoin="miter" fill="none"
 d="M60.500,80.000 L100.500,80.000 C101.328,80.000 102.000,80.672 102.000,81.500 C102.000,82.328 101.328,83.000 100.500,83.000 L60.500,83.000 C59.672,83.000 59.000,82.328 59.000,81.500 C59.000,80.672 59.672,80.000 60.500,80.000 Z"/>
<path fill-rule="evenodd"  stroke="rgb(219, 222, 229)" stroke-width="2px" stroke-linecap="butt" stroke-linejoin="miter" fill="none"
 d="M60.500,90.000 L70.500,90.000 C71.328,90.000 72.000,90.672 72.000,91.500 C72.000,92.328 71.328,93.000 70.500,93.000 L60.500,93.000 C59.672,93.000 59.000,92.328 59.000,91.500 C59.000,90.672 59.672,90.000 60.500,90.000 Z"/>
<path fill-rule="evenodd"  stroke="rgb(219, 222, 229)" stroke-width="2px" stroke-linecap="butt" stroke-linejoin="miter" fill="none"
 d="M634.000,112.000 L604.000,112.000 C598.477,112.000 594.000,107.523 594.000,102.000 L594.000,72.000 C594.000,66.477 598.477,62.000 604.000,62.000 L634.000,62.000 "/>
<path fill-rule="evenodd"  fill="rgb(219, 222, 229)"
 d="M706.000,139.000 L706.000,143.000 L704.000,143.000 L704.000,139.000 L700.000,139.000 L700.000,137.000 L704.000,137.000 L704.000,133.000 L706.000,133.000 L706.000,137.000 L710.000,137.000 L710.000,139.000 L706.000,139.000 ZM677.000,160.000 L675.000,160.000 L675.000,139.000 L668.000,139.000 L668.000,137.000 L675.000,137.000 L675.000,128.000 L677.000,128.000 L677.000,137.000 L690.000,137.000 L690.000,139.000 L677.000,139.000 L677.000,160.000 ZM676.000,38.000 L674.000,38.000 L674.000,19.000 L636.000,19.000 L636.000,22.000 L634.000,22.000 L634.000,19.000 L620.000,19.000 L620.000,17.000 L634.000,17.000 L634.000,-0.000 L636.000,-0.000 L636.000,17.000 L674.000,17.000 L674.000,-0.000 L676.000,-0.000 L676.000,17.000 L682.000,17.000 L682.000,19.000 L676.000,19.000 L676.000,38.000 ZM556.000,23.000 L554.000,23.000 L554.000,19.000 L550.000,19.000 L550.000,17.000 L554.000,17.000 L554.000,13.000 L556.000,13.000 L556.000,17.000 L560.000,17.000 L560.000,19.000 L556.000,19.000 L556.000,23.000 ZM106.000,23.000 L104.000,23.000 L104.000,19.000 L100.000,19.000 L100.000,17.000 L104.000,17.000 L104.000,13.000 L106.000,13.000 L106.000,17.000 L110.000,17.000 L110.000,19.000 L106.000,19.000 L106.000,23.000 ZM76.000,22.000 L74.000,22.000 L74.000,19.000 L36.000,19.000 L36.000,38.000 L34.000,38.000 L34.000,19.000 L28.000,19.000 L28.000,17.000 L34.000,17.000 L34.000,-0.000 L36.000,-0.000 L36.000,17.000 L74.000,17.000 L74.000,-0.000 L76.000,-0.000 L76.000,17.000 L90.000,17.000 L90.000,19.000 L76.000,19.000 L76.000,22.000 ZM33.000,128.000 L35.000,128.000 L35.000,137.000 L42.000,137.000 L42.000,139.000 L35.000,139.000 L35.000,160.000 L33.000,160.000 L33.000,139.000 L20.000,139.000 L20.000,137.000 L33.000,137.000 L33.000,128.000 ZM6.000,143.000 L4.000,143.000 L4.000,139.000 L-0.000,139.000 L-0.000,137.000 L4.000,137.000 L4.000,133.000 L6.000,133.000 L6.000,137.000 L10.000,137.000 L10.000,139.000 L6.000,139.000 L6.000,143.000 Z"/>
</svg>
